OFDR/img/guarantees/delivery-truck.svg

<svg width="58" height="28" viewBox="0 0 58 28" fill="none" xmlns="http://www.w3.org/2000/svg">
<g id="delivery-truck">
<path id="Shape" fill-rule="evenodd" clip-rule="evenodd" d="M57.7132 14.0449L50.9758 6.325C50.756 6.07337 50.4388 5.92888 50.1054 5.92888H44.4951V1.16127C44.4951 0.519891 43.977 0 43.3381 0H19.4418C18.8029 0 18.2848 0.519891 18.2848 1.16127V2.72823H7.157C6.51809 2.72823 6 3.24812 6 3.88951C6 4.53089 6.51809 5.05078 7.157 5.05078H18.2848V20.1044H11.5865C10.9476 20.1044 10.4295 20.6243 10.4295 21.2657C10.4295 21.907 10.9476 22.4269 11.5865 22.4269H18.2848V23.6071C18.2848 24.2485 18.8029 24.7684 19.4418 24.7684H21.8568C22.3656 26.6288 24.0642 28 26.0772 28C28.0901 28 29.7888 26.6288 30.2977 24.7684H45.736V24.7683C46.2447 26.6287 47.9434 27.9999 49.9564 27.9999C51.9693 27.9999 53.668 26.6287 54.1769 24.7683H56.843C57.4819 24.7683 58 24.2484 58 23.607V14.81C57.9999 14.5286 57.8979 14.2566 57.7132 14.0449ZM26.0772 25.6775C24.9398 25.6775 24.0146 24.7487 24.0146 23.6071C24.0146 22.4655 24.9398 21.5368 26.0772 21.5368C27.2145 21.5368 28.1399 22.4655 28.1399 23.6071C28.1399 24.7487 27.2145 25.6775 26.0772 25.6775ZM26.0769 19.2142C28.0899 19.2142 29.7887 20.5855 30.2975 22.4458H42.1807V2.32243H20.5986V22.4458H21.8565C22.3654 20.5855 24.064 19.2142 26.0769 19.2142ZM49.9561 25.6775C48.8188 25.6775 47.8935 24.7487 47.8935 23.6071C47.8935 22.4655 48.8188 21.5368 49.9561 21.5368C51.0935 21.5368 52.0189 22.4655 52.0189 23.6071C52.0189 24.7487 51.0936 25.6775 49.9561 25.6775ZM54.1767 22.4458H55.6858V15.2467L49.5805 8.25142H44.4948V22.4458H45.7357C46.2446 20.5855 47.9432 19.2142 49.9561 19.2142C51.9691 19.2142 53.6679 20.5855 54.1767 22.4458Z" fill="#86ADEF"/>
<path id="Path" d="M7.81591 20H7.18409C6.53022 20 6 20.6715 6 21.5C6 22.3285 6.53022 23 7.18409 23H7.81591C8.46978 23 9 22.3285 9 21.5C9 20.6715 8.46989 20 7.81591 20Z" fill="#86ADEF"/>
<path id="Path_2" d="M12.8991 11H1.1009C0.492972 11 0 11.5596 0 12.25C0 12.9404 0.492972 13.5 1.1009 13.5H12.8991C13.507 13.5 14 12.9404 14 12.25C14 11.5596 13.507 11 12.8991 11Z" fill="#86ADEF"/>
</g>
</svg>

<svg width="58" height="28" fill="none" xmlns="http://www.w3.org/2000/svg"><g fill="#86ADEF"><path fill-rule="evenodd" clip-rule="evenodd" d="M57.713 14.045l-6.737-7.72a1.156 1.156 0 00-.87-.396h-5.61V1.16A1.16 1.16 0 0043.337 0H19.442a1.16 1.16 0 00-1.157 1.161v1.567H7.157A1.16 1.16 0 006 3.89a1.16 1.16 0 001.157 1.16h11.128v15.054h-6.699a1.16 1.16 0 00-1.156 1.162 1.16 1.16 0 001.156 1.16h6.699v1.181a1.16 1.16 0 001.157 1.161h2.415c.509 1.86 2.207 3.232 4.22 3.232s3.712-1.371 4.22-3.232h15.439c.509 1.86 2.207 3.232 4.22 3.232s3.712-1.371 4.22-3.232h2.667A1.16 1.16 0 0058 23.607V14.81c0-.281-.102-.553-.287-.765zM26.077 25.677a2.069 2.069 0 01-2.062-2.07c0-1.142.925-2.07 2.062-2.07 1.137 0 2.063.928 2.063 2.07s-.925 2.07-2.063 2.07zm0-6.463c2.013 0 3.712 1.372 4.22 3.232h11.884V2.322H20.599v20.124h1.258c.508-1.86 2.207-3.232 4.22-3.232zm23.88 6.463a2.069 2.069 0 01-2.063-2.07c0-1.142.925-2.07 2.062-2.07 1.137 0 2.063.928 2.063 2.07s-.925 2.07-2.063 2.07zm4.22-3.231h1.509v-7.2L49.58 8.252h-5.086v14.195h1.24c.51-1.86 2.208-3.232 4.221-3.232s3.712 1.372 4.22 3.232z"/><path d="M7.816 20h-.632C6.53 20 6 20.672 6 21.5S6.53 23 7.184 23h.632C8.47 23 9 22.328 9 21.5S8.47 20 7.816 20zm5.084-9H1.1c-.607 0-1.1.56-1.1 1.25s.493 1.25 1.1 1.25h11.8c.607 0 1.1-.56 1.1-1.25S13.507 11 12.9 11z"/></g></svg>
